assets/icons/arrow-down.svg

<svg width="60" height="60" viewBox="0 0 60 60" fill="none" xmlns="http://www.w3.org/2000/svg">
<path d="M29.9991 60C13.457 60 0 46.5426 0 30C0 13.4574 13.457 0 29.9991 0C46.5411 0 59.9982 13.4574 59.9982 30C59.9982 46.5426 46.5411 60 29.9991 60ZM29.9991 2.60954C14.8959 2.60954 2.60947 14.8963 2.60947 30C2.60947 45.1036 14.8959 57.3905 29.9991 57.3905C45.1023 57.3905 57.3887 45.1036 57.3887 30C57.3887 14.8963 45.1023 2.60954 29.9991 2.60954Z" fill="url(#paint0_linear_200_174)"/>
<path d="M28.9393 46.0768C29.5251 46.6626 30.4749 46.6626 31.0607 46.0768L40.6066 36.5308C41.1924 35.9451 41.1924 34.9953 40.6066 34.4095C40.0208 33.8237 39.0711 33.8237 38.4853 34.4095L30 42.8948L21.5147 34.4095C20.9289 33.8237 19.9792 33.8237 19.3934 34.4095C18.8076 34.9953 18.8076 35.9451 19.3934 36.5308L28.9393 46.0768ZM28.5 14L28.5 45.0161H31.5L31.5 14H28.5Z" fill="white"/>
<path d="M28.9393 46.0768C29.5251 46.6626 30.4749 46.6626 31.0607 46.0768L40.6066 36.5308C41.1924 35.9451 41.1924 34.9953 40.6066 34.4095C40.0208 33.8237 39.0711 33.8237 38.4853 34.4095L30 42.8948L21.5147 34.4095C20.9289 33.8237 19.9792 33.8237 19.3934 34.4095C18.8076 34.9953 18.8076 35.9451 19.3934 36.5308L28.9393 46.0768ZM28.5 14L28.5 45.0161H31.5L31.5 14H28.5Z" fill="url(#paint1_linear_200_174)"/>
<defs>
<linearGradient id="paint0_linear_200_174" x1="0" y1="30.0024" x2="59.9982" y2="30.0024" gradientUnits="userSpaceOnUse">
<stop stop-color="#E4F0FF"/>
<stop offset="0.35" stop-color="#E2EEFC"/>
<stop offset="0.5" stop-color="#DBE7F5"/>
<stop offset="0.61" stop-color="#D1DBE9"/>
<stop offset="0.7" stop-color="#C1CBD7"/>
<stop offset="0.78" stop-color="#ADB5C0"/>
<stop offset="0.85" stop-color="#949AA4"/>
<stop offset="0.92" stop-color="#767A82"/>
<stop offset="0.98" stop-color="#55575C"/>
<stop offset="1" stop-color="#48494D"/>
</linearGradient>
<linearGradient id="paint1_linear_200_174" x1="29.4998" y1="-17.5062" x2="29.4998" y2="45.0143" gradientUnits="userSpaceOnUse">
<stop stop-color="#E4F0FF"/>
<stop offset="0.35" stop-color="#E2EEFC"/>
<stop offset="0.5" stop-color="#DBE7F5"/>
<stop offset="0.61" stop-color="#D1DBE9"/>
<stop offset="0.7" stop-color="#C1CBD7"/>
<stop offset="0.78" stop-color="#ADB5C0"/>
<stop offset="0.85" stop-color="#949AA4"/>
<stop offset="0.92" stop-color="#767A82"/>
<stop offset="0.98" stop-color="#55575C"/>
<stop offset="1" stop-color="#48494D"/>
</linearGradient>
</defs>
</svg>

<svg xmlns="http://www.w3.org/2000/svg" width="60" height="60" fill="none"><path fill="url(#a)" d="M30 60C13.456 60 0 46.543 0 30S13.457 0 30 0C46.54 0 59.997 13.457 59.997 30S46.541 60 30 60Zm0-57.39C14.895 2.61 2.61 14.896 2.61 30c0 15.104 12.286 27.39 27.39 27.39 15.102 0 27.389-12.286 27.389-27.39 0-15.104-12.287-27.39-27.39-27.39Z"/><path fill="#fff" d="M28.94 46.077a1.5 1.5 0 0 0 2.12 0l9.547-9.546a1.5 1.5 0 1 0-2.122-2.121L30 42.895l-8.485-8.486a1.5 1.5 0 1 0-2.122 2.122l9.546 9.546ZM28.5 14v31.016h3V14h-3Z"/><path fill="url(#b)" d="M28.94 46.077a1.5 1.5 0 0 0 2.12 0l9.547-9.546a1.5 1.5 0 1 0-2.122-2.121L30 42.895l-8.485-8.486a1.5 1.5 0 1 0-2.122 2.122l9.546 9.546ZM28.5 14v31.016h3V14h-3Z"/><defs><linearGradient id="a" x1="0" x2="59.998" y1="30.002" y2="30.002" gradientUnits="userSpaceOnUse"><stop stop-color="#E4F0FF"/><stop offset=".35" stop-color="#E2EEFC"/><stop offset=".5" stop-color="#DBE7F5"/><stop offset=".61" stop-color="#D1DBE9"/><stop offset=".7" stop-color="#C1CBD7"/><stop offset=".78" stop-color="#ADB5C0"/><stop offset=".85" stop-color="#949AA4"/><stop offset=".92" stop-color="#767A82"/><stop offset=".98" stop-color="#55575C"/><stop offset="1" stop-color="#48494D"/></linearGradient><linearGradient id="b" x1="29.5" x2="29.5" y1="-17.506" y2="45.014" gradientUnits="userSpaceOnUse"><stop stop-color="#E4F0FF"/><stop offset=".35" stop-color="#E2EEFC"/><stop offset=".5" stop-color="#DBE7F5"/><stop offset=".61" stop-color="#D1DBE9"/><stop offset=".7" stop-color="#C1CBD7"/><stop offset=".78" stop-color="#ADB5C0"/><stop offset=".85" stop-color="#949AA4"/><stop offset=".92" stop-color="#767A82"/><stop offset=".98" stop-color="#55575C"/><stop offset="1" stop-color="#48494D"/></linearGradient></defs></svg>
